X: 20271
T: Joe Whelan's
R: jig
M: 6/8
K: Dmajor
|:~F3 DFA|BAF AFE|~F3 DFA|BAF A2 E|
~F3 DFA|BAF d2 e|fed edB|~BAF AFE:|
|:Bcd eAA|f2 d eAA|Bcd eAA|~BAF AFE|
Bcd eAA|f2 d efg|afe fed|edB dBA:|
|:DFA ~d2 d|edc dAF|DFA d2 A|BAF AFE|
DFA ~d2 f|edc d2 e|fed edB|~BAF AFE:|

